X:7859
T:Nun will der Lenz uns gr\"u\ssen
C:anon.
O:Germany
Z:Transcribed by Frank Nordberg - http://www.musicaviva.com
F:http://abc.musicaviva.com/tunes/germany/nun-will-der-lenz.abc
M:C
L:1/4
K:G
D|GABB|A>GFD|E/F/GGF|G2z:|
B/c/|d>edc|B2AA|Bcdc/B/|A2zA|
B>BG>G|A2FD|E/F/GGF|G3|]
W:
W:
W:  From Musica Viva - http://www.musicaviva.com
W:  the Internet center for free sheet music downloads.
